tools/download-figma-icons/icons/outlined-medium/water-tap.svg

<svg width="24" height="24" viewBox="0 0 24 24" fill="none" xmlns="http://www.w3.org/2000/svg">
<path fill-rule="evenodd" clip-rule="evenodd" d="M22.5 15.75H16.5V15H22.5V15.75ZM12 11.25H15C16.2405 11.25 17.25 12.2595 17.25 13.5H21.75V12.75C21.75 9.95325 19.2967 7.5 16.5 7.5H12V11.25ZM10.5 12.75H7.5V6.75H10.5V12.75ZM6 11.25H3.75V7.5H6V11.25ZM1.5 12.75H1.94475C2.11275 12.75 2.25 12.6128 2.25 12.4447V6.30525C2.25 6.13725 2.11275 6 1.94475 6H1.5V12.75ZM6 1.848V1.902C6 2.094 6.156 2.25 6.348 2.25H11.652C11.844 2.25 12 2.094 12 1.902C12 1.656 11.844 1.5 11.652 1.5H6.348C6.156 1.5 6 1.656 6 1.848ZM23.25 12.75V13.578C23.6873 13.7423 24 14.1622 24 14.6565V16.0935C24 16.7318 23.4818 17.25 22.8435 17.25H16.1565C15.5182 17.25 15 16.7318 15 16.0935V14.6565C15 14.1622 15.3127 13.7423 15.75 13.578V13.5C15.75 13.086 15.414 12.75 15 12.75H12V13.125C12 13.7452 11.4952 14.25 10.875 14.25H7.125C6.50475 14.25 6 13.7452 6 13.125V12.75H3.71925C3.573 13.5997 2.835 14.25 1.94475 14.25H0.75C0.33525 14.25 0 13.9148 0 13.5V5.25C0 4.83525 0.33525 4.5 0.75 4.5H1.94475C2.835 4.5 3.573 5.15025 3.71925 6H6.069C6.22425 5.56425 6.63675 5.25 7.125 5.25H8.187V3.75H6.348C5.32875 3.75 4.5 2.92125 4.5 1.902V1.848C4.5 0.82875 5.32875 0 6.348 0H11.652C12.6713 0 13.5 0.82875 13.5 1.848C13.5 2.92125 12.6713 3.75 11.652 3.75H9.687V5.25H10.875C11.3632 5.25 11.7758 5.56425 11.931 6H16.5C20.1593 6 23.25 9.09075 23.25 12.75ZM18.75 21.5797C18.75 22.0875 19.086 22.5 19.5 22.5C19.914 22.5 20.25 22.0875 20.25 21.5797C20.25 21.312 19.9155 20.673 19.5 20.0385C19.0845 20.673 18.75 21.312 18.75 21.5797ZM17.25 21.5797C17.25 20.4832 18.5205 18.7815 18.9105 18.2865C19.1947 17.9242 19.8053 17.9242 20.0895 18.2865C20.4795 18.7815 21.75 20.4832 21.75 21.5797C21.75 22.9147 20.7405 24 19.5 24C18.2595 24 17.25 22.9147 17.25 21.5797Z" fill="black"/>
</svg>

<svg xmlns="http://www.w3.org/2000/svg" width="24" height="24" fill="none" viewBox="0 0 24 24"><path fill="currentColor" fill-rule="evenodd" d="M22.5 15.75h-6V15h6zM12 11.25h3c1.24 0 2.25 1.01 2.25 2.25h4.5v-.75c0-2.797-2.453-5.25-5.25-5.25H12zm-1.5 1.5h-3v-6h3zM6 11.25H3.75V7.5H6zm-4.5 1.5h.445a.306.306 0 0 0 .305-.305v-6.14A.306.306 0 0 0 1.945 6H1.5zM6 1.848v.054c0 .192.156.348.348.348h5.304A.35.35 0 0 0 12 1.902c0-.246-.156-.402-.348-.402H6.348A.35.35 0 0 0 6 1.848M23.25 12.75v.828c.437.164.75.584.75 1.079v1.436c0 .639-.518 1.157-1.157 1.157h-6.686A1.157 1.157 0 0 1 15 16.093v-1.437c0-.494.313-.914.75-1.078V13.5a.75.75 0 0 0-.75-.75h-3v.375c0 .62-.505 1.125-1.125 1.125h-3.75c-.62 0-1.125-.505-1.125-1.125v-.375H3.72c-.147.85-.885 1.5-1.775 1.5H.75A.75.75 0 0 1 0 13.5V5.25a.75.75 0 0 1 .75-.75h1.195c.89 0 1.628.65 1.774 1.5h2.35c.155-.436.568-.75 1.056-.75h1.062v-1.5H6.348A1.85 1.85 0 0 1 4.5 1.902v-.054A1.85 1.85 0 0 1 6.348 0h5.304A1.85 1.85 0 0 1 13.5 1.848c0 1.073-.829 1.902-1.848 1.902H9.687v1.5h1.188c.488 0 .9.314 1.056.75H16.5c3.66 0 6.75 3.09 6.75 6.75m-4.5 8.83c0 .508.336.92.75.92s.75-.413.75-.92c0-.268-.334-.907-.75-1.541-.416.634-.75 1.273-.75 1.54m-1.5 0c0-1.097 1.27-2.798 1.66-3.293.285-.363.895-.363 1.18 0 .39.495 1.66 2.196 1.66 3.293 0 1.335-1.01 2.42-2.25 2.42s-2.25-1.085-2.25-2.42" clip-rule="evenodd"/></svg>
